X: 3
T: The Lord Of The Dance
R: jig
M: 6/8
L: 1/8
K: Gmaj
|:a4 f3e| fgfe d4|f2fg a2gf|e2A2 A4||d2dc dAFA| dAdf a2gf|e2ee egfe| d2dc d4:||:d4 B3A| BcBA G4|B2Bc d2cB|A2D2 D4||G2GF GDBD| GDGB d2cB|A2AA AcBA|1 G2GF G4:|2G2GF G3A||[|d2dd f2ff |a2a2 f4|e2ee e3f|gfed c3A||d2dd f2ff |a2a2 f4|e2ee egfe| d2dc d4|][|d4 B3A| BcBA G4|B2Bc d2cB|A2D2 D4||G2GF GDBD| GDGB d2cB|A2AA AcBA|G2GG G4|]


Tune 7844	Setting 19159

